**kern	**kern	**dynam
*part1	*part1	*part1
*staff2	*staff1	*
*I"Piano	*	*
*clefF4	*clefG2	*
*k[]	*k[]	*
*M3/4	*M3/4	*
=1	=1	=1
(4c	4c 4e	p <
4B	4c 4e	.
4B-X	4c 4e	.
=	=	=
4A	4c 4e	.
4A-X	4c 4e	.
4G)	4c 4e	.
=	=	=
*	*^	*
4F#X 4A	2a	4c 4e-X	[
4F# 4A	.	4c 4e-	.
4F# 4A	4a	4c 4e-	.
=	=	=	=
4F#X 4A	2.a 2.cc	4c: 4d:	f
4F# 4A	.	4c 4d	.
4F# 4A	.	4c 4d	.
*	*v	*v	*
=	=	=
4G	4c 4e 4g 4cc	.
4GG	4c 4f 4a	.
4G 4Bn	4f 4g 4dd	.
=	=	=
4G 4c	4e 4g	.
4G	4c 4e	.
4GG	4c 4e-X 4a	.
=	=	=
4G 4c	2d	.
4G 4Bn	.	.
4F#X 4A 4c	(8fnL	.
.	8e-XJ)	.
=	=	=
*-	*-	*-
!!!system-decoration: {(s1,s2)}
